symbols/web/developer_mode/materialsymbolsoutlined/developer_mode_wght500grad200_20px.svg

<svg xmlns="http://www.w3.org/2000/svg" height="20" width="20"><path d="M5.917 5.833H3.479V2.521q0-1.021.719-1.729.719-.709 1.719-.709h8.166q1 0 1.719.709.719.708.719 1.729v3.312h-2.438v-.416H5.917Zm-2.438 8.334h2.438v.416h8.166v-.416h2.438v3.312q0 1.021-.719 1.729-.719.709-1.719.709H5.917q-1 0-1.719-.709-.719-.708-.719-1.729Zm9.438.021-1.646-1.646L13.812 10l-2.541-2.542 1.646-1.646L17.083 10Zm-5.834 0L2.917 10l4.166-4.188 1.646 1.646L6.188 10l2.541 2.542Zm-1.166 2.604v.687h8.166v-.687Zm0 .687v-.687.687Zm0-14.271h8.166v-.687H5.917Zm0-.687v.687-.687Z"/></svg>

<svg xmlns="http://www.w3.org/2000/svg" height="20" width="20"><path d="M5.917 5.833H3.479V2.521Q3.479 1.5 4.198 0.792Q4.917 0.083 5.917 0.083H14.083Q15.083 0.083 15.802 0.792Q16.521 1.5 16.521 2.521V5.833H14.083V5.417H5.917ZM3.479 14.167H5.917V14.583H14.083V14.167H16.521V17.479Q16.521 18.5 15.802 19.208Q15.083 19.917 14.083 19.917H5.917Q4.917 19.917 4.198 19.208Q3.479 18.5 3.479 17.479ZM12.917 14.188 11.271 12.542 13.812 10 11.271 7.458 12.917 5.812 17.083 10ZM7.083 14.188 2.917 10 7.083 5.812 8.729 7.458 6.188 10 8.729 12.542ZM5.917 16.792V17.479Q5.917 17.479 5.917 17.479Q5.917 17.479 5.917 17.479H14.083Q14.083 17.479 14.083 17.479Q14.083 17.479 14.083 17.479V16.792ZM5.917 17.479Q5.917 17.479 5.917 17.479Q5.917 17.479 5.917 17.479V16.792V17.479Q5.917 17.479 5.917 17.479Q5.917 17.479 5.917 17.479ZM5.917 3.208H14.083V2.521Q14.083 2.521 14.083 2.521Q14.083 2.521 14.083 2.521H5.917Q5.917 2.521 5.917 2.521Q5.917 2.521 5.917 2.521ZM5.917 2.521Q5.917 2.521 5.917 2.521Q5.917 2.521 5.917 2.521V3.208V2.521Q5.917 2.521 5.917 2.521Q5.917 2.521 5.917 2.521Z"/></svg>
